X:167
T: KRONE KRANE SCHWICKLE SCHWANE
N: K2326
O: Europa, Mitteleuropa, Deutschland, Barmen, Elberfeld
R: Kinder - Lied, Reigen, Tanz - Spiel
M: 2/4
L: 1/8
K: F
 | cBAB | cBAB
cdcd | cBAB
cccd | c2A
B | cccd | c2A
B | cccd | cBA
d | cBAd | cBAz
dcBA | GGF2

